symbols/web/3g_mobiledata/materialsymbolsoutlined/3g_mobiledata_40px.svg

<svg xmlns="http://www.w3.org/2000/svg" height="40" width="40"><path d="M5 28.333v-2.791h8.542v-4.167h-8.5v-2.75h8.5v-4.167H5v-2.791h8.542q1.125 0 1.937.833.813.833.813 1.958v3.167q0 1-.584 1.708-.583.709-1.583.709 1 0 1.583.687.584.688.584 1.688v3.125q0 1.125-.813 1.958-.812.833-1.937.833Zm30-9.791v7q0 1.125-.812 1.958-.813.833-1.938.833h-9.208q-1.125 0-1.938-.833-.812-.833-.812-1.958V14.458q0-1.125.812-1.958.813-.833 1.938-.833h9.208q1.125 0 1.896.833.771.833.854 1.958H23.042v11.084h9.208v-4.209H28v-2.791Z"/></svg>

<svg xmlns="http://www.w3.org/2000/svg" height="40" width="40"><path d="M5 28.333V25.542H13.542Q13.542 25.542 13.542 25.542Q13.542 25.542 13.542 25.542V21.375Q13.542 21.375 13.542 21.375Q13.542 21.375 13.542 21.375H5.042V18.625H13.542Q13.542 18.625 13.542 18.625Q13.542 18.625 13.542 18.625V14.458Q13.542 14.458 13.542 14.458Q13.542 14.458 13.542 14.458H5V11.667H13.542Q14.667 11.667 15.479 12.5Q16.292 13.333 16.292 14.458V17.625Q16.292 18.625 15.708 19.333Q15.125 20.042 14.125 20.042Q15.125 20.042 15.708 20.729Q16.292 21.417 16.292 22.417V25.542Q16.292 26.667 15.479 27.5Q14.667 28.333 13.542 28.333ZM35 18.542V25.542Q35 26.667 34.188 27.5Q33.375 28.333 32.25 28.333H23.042Q21.917 28.333 21.104 27.5Q20.292 26.667 20.292 25.542V14.458Q20.292 13.333 21.104 12.5Q21.917 11.667 23.042 11.667H32.25Q33.375 11.667 34.146 12.5Q34.917 13.333 35 14.458H23.042Q23.042 14.458 23.042 14.458Q23.042 14.458 23.042 14.458V25.542Q23.042 25.542 23.042 25.542Q23.042 25.542 23.042 25.542H32.25Q32.25 25.542 32.25 25.542Q32.25 25.542 32.25 25.542V21.333H28V18.542Z"/></svg>
